packages/ffe-icons/icons/filled/md/zoom_out_map.svg

<svg xmlns="http://www.w3.org/2000/svg" height="24" viewBox="0 -960 960 960" width="24"><path d="M242.153-200h87.848q12.749 0 21.374 8.629Q360-182.743 360-169.987q0 12.755-8.625 21.37-8.625 8.616-21.374 8.616H176.155q-15.365 0-25.759-10.395-10.395-10.394-10.395-25.759v-153.846q0-12.749 8.629-21.374Q157.259-360 170.014-360q12.756 0 21.371 8.625Q200-342.75 200-330.001v87.848l112.924-112.924q8.308-8.308 20.884-8.5 12.577-.192 21.269 8.5 8.692 8.692 8.692 21.076 0 12.385-8.692 21.077L242.153-200Zm475.694 0L604.923-312.924q-8.308-8.308-8.5-20.884-.192-12.577 8.5-21.269 8.692-8.692 21.076-8.692 12.385 0 21.077 8.692L760-242.153v-87.848q0-12.749 8.629-21.374Q777.257-360 790.013-360q12.755 0 21.37 8.625 8.616 8.625 8.616 21.374v153.846q0 15.365-10.395 25.759-10.394 10.395-25.759 10.395H629.999q-12.749 0-21.374-8.629Q600-157.259 600-170.014q0-12.756 8.625-21.371Q617.25-200 629.999-200h87.848ZM200-717.847v87.848q0 12.749-8.629 21.374Q182.743-600 169.987-600q-12.755 0-21.37-8.625-8.616-8.625-8.616-21.374v-153.846q0-15.365 10.395-25.759 10.394-10.395 25.759-10.395h153.846q12.749 0 21.374 8.629Q360-802.741 360-789.986q0 12.756-8.625 21.371Q342.75-760 330.001-760h-87.848l112.924 112.924q8.308 8.308 8.5 20.884.192 12.577-8.5 21.269-8.692 8.692-21.076 8.692-12.385 0-21.077-8.692L200-717.847Zm560 0L647.076-604.923q-8.308 8.308-20.884 8.5-12.577.192-21.269-8.5-8.692-8.692-8.692-21.076 0-12.385 8.692-21.077L717.847-760h-87.848q-12.749 0-21.374-8.629Q600-777.257 600-790.013q0-12.755 8.625-21.37 8.625-8.616 21.374-8.616h153.846q15.365 0 25.759 10.395 10.395 10.394 10.395 25.759v153.846q0 12.749-8.629 21.374Q802.741-600 789.986-600q-12.756 0-21.371-8.625Q760-617.25 760-629.999v-87.848Z"/></svg>

<svg xmlns="http://www.w3.org/2000/svg" height="24" viewBox="0 -960 960 960" width="24"><path d="M242.15-200H330q12.75 0 21.38 8.63 8.62 8.63 8.62 21.38 0 12.76-8.62 21.37Q342.75-140 330-140H176.16q-15.37 0-25.76-10.4-10.4-10.39-10.4-25.76V-330q0-12.75 8.63-21.38 8.63-8.62 21.38-8.62 12.76 0 21.37 8.62Q200-342.75 200-330v87.85l112.92-112.93q8.31-8.3 20.89-8.5 12.58-.19 21.27 8.5t8.69 21.08q0 12.38-8.69 21.08L242.15-200Zm475.7 0L604.92-312.92q-8.3-8.31-8.5-20.89-.19-12.58 8.5-21.27t21.08-8.69q12.38 0 21.08 8.69L760-242.15V-330q0-12.75 8.63-21.38 8.63-8.62 21.38-8.62 12.76 0 21.37 8.62Q820-342.75 820-330v153.84q0 15.37-10.4 25.76-10.39 10.4-25.76 10.4H630q-12.75 0-21.38-8.63-8.62-8.63-8.62-21.38 0-12.76 8.62-21.37Q617.25-200 630-200h87.85ZM200-717.85V-630q0 12.75-8.63 21.38-8.63 8.62-21.38 8.62-12.76 0-21.37-8.62Q140-617.25 140-630v-153.84q0-15.37 10.4-25.76 10.39-10.4 25.76-10.4H330q12.75 0 21.38 8.63 8.62 8.63 8.62 21.38 0 12.76-8.62 21.37Q342.75-760 330-760h-87.85l112.93 112.92q8.3 8.31 8.5 20.89.19 12.58-8.5 21.27T334-596.23q-12.38 0-21.08-8.69L200-717.85Zm560 0L647.08-604.92q-8.31 8.3-20.89 8.5-12.58.19-21.27-8.5T596.23-626q0-12.38 8.69-21.08L717.85-760H630q-12.75 0-21.38-8.63-8.62-8.63-8.62-21.38 0-12.76 8.62-21.37Q617.25-820 630-820h153.84q15.37 0 25.76 10.4 10.4 10.39 10.4 25.76V-630q0 12.75-8.63 21.38-8.63 8.62-21.38 8.62-12.76 0-21.37-8.62Q760-617.25 760-630v-87.85Z"/></svg>
